X: 491
U:~=!turn!
M:C
L:1/8
K:G aeolian
d | g<bd<b c<aB<g | A>fc>f A<FF>A | g<bd<b c<aB<g | A>gd>g B<GG>d |
g<bd>b c<aB<g | A>fc>f A<FTF>A | G<GTB>G d<GB<g | ~f>d{/d}c<A BGG |]


